public/avatar/item0/66.svg

<svg xmlns:xlink="http://www.w3.org/1999/xlink" height="58.65" width="49.15" xmlns="http://www.w3.org/2000/svg"><g transform="translate(24.1 18.1)"><use height="12" transform="matrix(-1 0 0 1 1.05 -3.9)" width="14.45" xlink:href="#a"/><use height="11.45" transform="matrix(-1 0 0 1 -1.5 -3.45)" width="11.55" xlink:href="#b"/><use height="10.55" transform="matrix(-1 0 0 1 1.05 -2.6)" width="14.1" xlink:href="#c"/><use height="3.55" transform="matrix(-1 0 0 1 -2.25 -3.35)" width="6.8" xlink:href="#d"/><use height="8.9" transform="matrix(-1 0 0 1 -.75 -1.2)" width="11.7" xlink:href="#e"/><use height="2" transform="matrix(-1 0 0 1 -2.2 -3.35)" width="6.8" xlink:href="#f"/><use height="3.55" transform="matrix(-1 0 0 1 -2.25 -3.35)" width="5.85" xlink:href="#g"/><use height="1.85" transform="matrix(-1 0 0 1 -5.85 -3)" width="2.75" xlink:href="#h"/><use height="12" transform="translate(-.95 -3.9)" width="14.45" xlink:href="#a"/><use height="11.45" transform="translate(1.6 -3.45)" width="11.55" xlink:href="#b"/><use height="10.55" transform="translate(-.95 -2.6)" width="14.1" xlink:href="#c"/><use height="3.55" transform="translate(2.35 -3.35)" width="6.8" xlink:href="#d"/><use height="8.9" transform="translate(.85 -1.2)" width="11.7" xlink:href="#e"/><use height="2" transform="translate(2.3 -3.35)" width="6.8" xlink:href="#f"/><use height="3.55" transform="translate(2.35 -3.35)" width="5.85" xlink:href="#g"/><use height="1.85" transform="translate(5.95 -3)" width="2.75" xlink:href="#h"/><use height="2.25" transform="translate(-2.05)" width="4.3" xlink:href="#i"/></g><defs><use height="12" width="14.45" xlink:href="#j" id="a"/><use height="11.45" width="11.55" xlink:href="#k" id="b"/><use height="10.55" width="14.1" xlink:href="#l" id="c"/><use height="3.55" width="6.8" xlink:href="#m" id="d"/><use height="8.9" width="11.7" xlink:href="#n" id="e"/><use height="2" width="6.8" xlink:href="#o" id="f"/><use height="3.55" width="5.85" xlink:href="#p" id="g"/><use height="1.85" width="2.75" xlink:href="#q" id="h"/><use height="2.25" width="4.3" xlink:href="#r" id="i"/><path d="M13.1 11.85q-2.8-4.1-6.45-4.7-1.95-1-3.7-1L0 6.2V3.35l1.5-.1.45.05 1-1.65Q4.65-.05 7.45 0q3.8.35 4.45 2.9l1.55 4.6q1.8 3.3.4 4.35l-.65.15-.05-.1-.05-.05" fill="#565555" fill-rule="evenodd" id="j"/><path d="M11 11.45q-.95-1.5-2.25-2.7-1.7-1.5-3.9-2.45-1.9-.75-4.1-.8Q.3 5 .1 4.2-.35 2.55.85 1v.1q.5-.6 1.6-.9l2.5-.2Q7.7.2 8.9 2.25l.45 1.9q.05.85 1.7 4.15 1 2.4-.05 3.15" fill="#fff" fill-rule="evenodd" id="k"/><path d="M11.85 5.8v-.05l-.6-1.1L8.8 4.6l-.4.5 1.55.9 2.75 1.45-.85-1.65M10.3 0q1.4.85 1.6 3.3l1.65 3.85q1.15 2.8 0 3.3l-.45.1q.15-.1.4-.25-2.95-3.75-7.4-5.05l-.15.05-2.05-.5.2.1L0 4.7V2.6l2.55.05.1.7q.2.8.65 1.3L2.75 3.1q.75 1.7 4.2 1.6H7l.1-.05 2.05-.6L10.6 2.7q.8-.95-.3-2.7" fill="#bcb7b7" fill-rule="evenodd" id="l"/><path d="M6.8 1.55Q6.9 3.3 3.5 3.5.1 3.75 0 2-.15.3 3.3 0q3.4-.2 3.5 1.55" fill="red" fill-rule="evenodd" id="m"/><path d="M3.3 0q3.4-.2 3.5 1.55Q3.85-.95 0 2 0 .25 3.3 0" fill="#660808" fill-rule="evenodd" id="o"/><path d="M3.3 0Q1 1.15 3.2 2.1l2.65.75-2.35.65Q.1 3.75 0 2-.2.2 3.3 0" fill="#bc0808" fill-rule="evenodd" id="p"/><path d="M2.55.7q.35.15.1.5-.4.8-1.15.8-.75.05-1.25-.7Q-.2.6.25.2L1.5.15Q2.05.2 2.55.7" fill="#fff" fill-rule="evenodd" transform="translate(0 -.15)" id="q"/><path d="M1.8.95q1.25.85 2.25.85l.25.25-4.3.2Q.7.8.7 0l1.1.95" fill="#848080" fill-rule="evenodd" id="r"/><g id="n" fill="#848080" fill-rule="evenodd"><path d="M.6 1.2q-.25 1.1.9 2.05l-1.15-.3q-.55-.2-.2-1L.6 1.2m9.2 5.1q1.5 1.35 1.9 2.6-1.9-2.8-6.2-4.75l-3.9-1.4q5.25.75 8.2 3.55m.2-4.7.3.95-2.55.2q1.3-.3 2.25-1.15"/><path d="M8.75 2.3Q9.9 1.6 9.8.5l.25 1.2-.3.55-1 .05"/><path d="m8 2.75.8-.35.45-.1.6-.3.3.15.35.85L8 2.75m-2.55-1q-2.5.4-3.45-.7l-.3-.7q.95 1.7 4.15.9Q8.05.8 8.4 0q-.3 1.05-2.95 1.75"/></g></defs></svg>

<?xml version="1.0" encoding="UTF-8" standalone="no"?>
<svg xmlns:xlink="http://www.w3.org/1999/xlink" height="58.65px" width="49.15px" xmlns="http://www.w3.org/2000/svg">
  <g transform="matrix(1.0, 0.0, 0.0, 1.0, 24.1, 18.1)">
    <use height="12.0" transform="matrix(-1.0, 0.0, 0.0, 1.0, 1.05, -3.9)" width="14.45" xlink:href="#sprite0"/>
    <use height="11.45" transform="matrix(-1.0, 0.0, 0.0, 1.0, -1.5, -3.45)" width="11.55" xlink:href="#sprite1"/>
    <use height="10.55" transform="matrix(-1.0, 0.0, 0.0, 1.0, 1.05, -2.6)" width="14.1" xlink:href="#sprite2"/>
    <use height="3.55" transform="matrix(-1.0, 0.0, 0.0, 1.0, -2.25, -3.35)" width="6.8" xlink:href="#sprite3"/>
    <use height="8.9" transform="matrix(-1.0, 0.0, 0.0, 1.0, -0.75, -1.2)" width="11.7" xlink:href="#sprite4"/>
    <use height="2.0" transform="matrix(-1.0, 0.0, 0.0, 1.0, -2.2, -3.35)" width="6.8" xlink:href="#sprite5"/>
    <use height="3.55" transform="matrix(-1.0, 0.0, 0.0, 1.0, -2.25, -3.35)" width="5.85" xlink:href="#sprite6"/>
    <use height="1.85" transform="matrix(-1.0, 0.0, 0.0, 1.0, -5.85, -3.0)" width="2.75" xlink:href="#sprite7"/>
    <use height="12.0" transform="matrix(1.0, 0.0, 0.0, 1.0, -0.95, -3.9)" width="14.45" xlink:href="#sprite0"/>
    <use height="11.45" transform="matrix(1.0, 0.0, 0.0, 1.0, 1.6, -3.45)" width="11.55" xlink:href="#sprite1"/>
    <use height="10.55" transform="matrix(1.0, 0.0, 0.0, 1.0, -0.95, -2.6)" width="14.1" xlink:href="#sprite2"/>
    <use height="3.55" transform="matrix(1.0, 0.0, 0.0, 1.0, 2.35, -3.35)" width="6.8" xlink:href="#sprite3"/>
    <use height="8.9" transform="matrix(1.0, 0.0, 0.0, 1.0, 0.85, -1.2)" width="11.7" xlink:href="#sprite4"/>
    <use height="2.0" transform="matrix(1.0, 0.0, 0.0, 1.0, 2.3, -3.35)" width="6.8" xlink:href="#sprite5"/>
    <use height="3.55" transform="matrix(1.0, 0.0, 0.0, 1.0, 2.35, -3.35)" width="5.85" xlink:href="#sprite6"/>
    <use height="1.85" transform="matrix(1.0, 0.0, 0.0, 1.0, 5.95, -3.0)" width="2.75" xlink:href="#sprite7"/>
    <use height="2.25" transform="matrix(1.0, 0.0, 0.0, 1.0, -2.05, 0.0)" width="4.3" xlink:href="#sprite8"/>
  </g>
  <defs>
    <g id="sprite0" transform="matrix(1.0, 0.0, 0.0, 1.0, 0.0, 0.0)">
      <use height="12.0" transform="matrix(1.0, 0.0, 0.0, 1.0, 0.0, 0.0)" width="14.45" xlink:href="#shape0"/>
    </g>
    <g id="shape0" transform="matrix(1.0, 0.0, 0.0, 1.0, 0.0, 0.0)">
      <path d="M13.1 11.85 Q10.3 7.75 6.65 7.15 4.7 6.15 2.95 6.15 L0.0 6.2 0.0 3.35 1.5 3.25 1.95 3.3 2.95 1.65 Q4.65 -0.05 7.45 0.0 11.25 0.35 11.9 2.9 L13.45 7.5 Q15.25 10.8 13.85 11.85 L13.2 12.0 13.15 11.9 13.1 11.85" fill="#565555" fill-rule="evenodd" stroke="none"/>
    </g>
    <g id="sprite1" transform="matrix(1.0, 0.0, 0.0, 1.0, 0.0, 0.0)">
      <use height="11.45" transform="matrix(1.0, 0.0, 0.0, 1.0, 0.0, 0.0)" width="11.55" xlink:href="#shape1"/>
    </g>
    <g id="shape1" transform="matrix(1.0, 0.0, 0.0, 1.0, 0.0, 0.0)">
      <path d="M11.0 11.45 Q10.05 9.95 8.75 8.75 7.05 7.25 4.85 6.3 2.95 5.55 0.75 5.5 0.3 5.0 0.1 4.2 -0.35 2.55 0.85 1.0 L0.85 1.1 Q1.35 0.5 2.45 0.2 L4.95 0.0 Q7.7 0.2 8.9 2.25 L9.35 4.15 Q9.4 5.0 11.05 8.3 12.05 10.7 11.0 11.45" fill="#ffffff" fill-rule="evenodd" stroke="none"/>
    </g>
    <g id="sprite2" transform="matrix(1.0, 0.0, 0.0, 1.0, 0.0, 0.0)">
      <use height="10.55" transform="matrix(1.0, 0.0, 0.0, 1.0, 0.0, 0.0)" width="14.1" xlink:href="#shape2"/>
    </g>
    <g id="shape2" transform="matrix(1.0, 0.0, 0.0, 1.0, 0.0, 0.0)">
      <path d="M11.85 5.8 L11.85 5.75 11.25 4.65 8.8 4.6 8.4 5.1 9.95 6.0 12.7 7.45 11.85 5.8 M10.3 0.0 Q11.7 0.85 11.9 3.3 L13.55 7.15 Q14.7 9.95 13.55 10.45 L13.1 10.55 Q13.25 10.45 13.5 10.3 10.55 6.55 6.1 5.25 L5.95 5.3 3.9 4.8 4.1 4.9 0.0 4.7 0.0 2.6 2.55 2.65 2.65 3.35 Q2.85 4.15 3.3 4.65 L2.75 3.1 Q3.5 4.8 6.95 4.7 L7.0 4.7 7.1 4.65 9.15 4.05 10.6 2.7 Q11.4 1.75 10.3 0.0" fill="#bcb7b7" fill-rule="evenodd" stroke="none"/>
    </g>
    <g id="sprite3" transform="matrix(1.0, 0.0, 0.0, 1.0, 0.0, 0.0)">
      <use height="3.55" transform="matrix(1.0, 0.0, 0.0, 1.0, 0.0, 0.0)" width="6.8" xlink:href="#shape3"/>
    </g>
    <g id="shape3" transform="matrix(1.0, 0.0, 0.0, 1.0, 0.0, 0.0)">
      <path d="M6.8 1.55 Q6.9 3.3 3.5 3.5 0.1 3.75 0.0 2.0 -0.15 0.3 3.3 0.0 6.7 -0.2 6.8 1.55" fill="#ff0000" fill-rule="evenodd" stroke="none"/>
    </g>
    <g id="sprite4" transform="matrix(1.0, 0.0, 0.0, 1.0, 0.0, 0.0)">
      <use height="8.9" transform="matrix(1.0, 0.0, 0.0, 1.0, 0.0, 0.0)" width="11.7" xlink:href="#shape4"/>
    </g>
    <g id="shape4" transform="matrix(1.0, 0.0, 0.0, 1.0, 0.0, 0.0)">
      <path d="M0.6 1.2 Q0.35 2.3 1.5 3.25 L0.35 2.95 Q-0.2 2.75 0.15 1.95 L0.6 1.2" fill="#848080" fill-rule="evenodd" stroke="none"/>
      <path d="M9.8 6.3 Q11.3 7.65 11.7 8.9 9.8 6.1 5.5 4.15 L1.6 2.75 Q6.85 3.5 9.8 6.3" fill="#848080" fill-rule="evenodd" stroke="none"/>
      <path d="M10.0 1.6 L10.3 2.55 7.75 2.75 Q9.05 2.45 10.0 1.6" fill="#848080" fill-rule="evenodd" stroke="none"/>
      <path d="M8.75 2.3 Q9.9 1.6 9.8 0.5 L10.05 1.7 9.75 2.25 8.75 2.3" fill="#848080" fill-rule="evenodd" stroke="none"/>
      <path d="M8.0 2.75 L8.8 2.4 9.25 2.3 9.85 2.0 10.15 2.15 10.5 3.0 8.0 2.75" fill="#848080" fill-rule="evenodd" stroke="none"/>
      <path d="M5.45 1.75 Q2.95 2.15 2.0 1.05 L1.7 0.35 Q2.65 2.05 5.85 1.25 8.05 0.8 8.4 0.0 8.1 1.05 5.45 1.75" fill="#848080" fill-rule="evenodd" stroke="none"/>
    </g>
    <g id="sprite5" transform="matrix(1.0, 0.0, 0.0, 1.0, 0.0, 0.0)">
      <use height="2.0" transform="matrix(1.0, 0.0, 0.0, 1.0, 0.0, 0.0)" width="6.8" xlink:href="#shape5"/>
    </g>
    <g id="shape5" transform="matrix(1.0, 0.0, 0.0, 1.0, 0.0, 0.0)">
      <path d="M3.3 0.0 Q6.7 -0.2 6.8 1.55 3.85 -0.95 0.0 2.0 0.0 0.25 3.3 0.0" fill="#660808" fill-rule="evenodd" stroke="none"/>
    </g>
    <g id="sprite6" transform="matrix(1.0, 0.0, 0.0, 1.0, 0.0, 0.0)">
      <use height="3.55" transform="matrix(1.0, 0.0, 0.0, 1.0, 0.0, 0.0)" width="5.85" xlink:href="#shape6"/>
    </g>
    <g id="shape6" transform="matrix(1.0, 0.0, 0.0, 1.0, 0.0, 0.0)">
      <path d="M3.3 0.0 Q1.0 1.15 3.2 2.1 L5.85 2.85 3.5 3.5 Q0.1 3.75 0.0 2.0 -0.2 0.2 3.3 0.0" fill="#bc0808" fill-rule="evenodd" stroke="none"/>
    </g>
    <g id="sprite7" transform="matrix(1.0, 0.0, 0.0, 1.0, 0.0, -0.15)">
      <use height="1.85" transform="matrix(1.0, 0.0, 0.0, 1.0, 0.0, 0.15)" width="2.75" xlink:href="#shape7"/>
    </g>
    <g id="shape7" transform="matrix(1.0, 0.0, 0.0, 1.0, 0.0, -0.15)">
      <path d="M2.55 0.7 Q2.9 0.85 2.65 1.2 2.25 2.0 1.5 2.0 0.75 2.05 0.25 1.3 -0.2 0.6 0.25 0.2 L1.5 0.15 Q2.05 0.2 2.55 0.7" fill="#ffffff" fill-rule="evenodd" stroke="none"/>
    </g>
    <g id="sprite8" transform="matrix(1.0, 0.0, 0.0, 1.0, 0.0, 0.0)">
      <use height="2.25" transform="matrix(1.0, 0.0, 0.0, 1.0, 0.0, 0.0)" width="4.3" xlink:href="#shape8"/>
    </g>
    <g id="shape8" transform="matrix(1.0, 0.0, 0.0, 1.0, 0.0, 0.0)">
      <path d="M1.8 0.95 Q3.05 1.8 4.05 1.8 L4.3 2.05 0.0 2.25 Q0.7 0.8 0.7 0.0 L1.8 0.95" fill="#848080" fill-rule="evenodd" stroke="none"/>
    </g>
  </defs>
</svg>
